X:23023
T:William Taylor's Tabletop Hornpipe
R:Hornpipe
C:Dave Shepherd 1984
O:England
Z:Paul Hardy's Session Tunebook 2015 (see www.paulhardy.net). Creative Commons cc by-nc-sa licenced.
M:4/4
L:1/8
Q:1/4=130
K:Ador
"Am"A2 A2 ABcA|"Em"BcBA G2E2|"Am"e2 e2 "G"d3c|"Em"BAGA "G"BcdB|
"Am"A2 A2 ABcA|"Em"BcBA G2E2|"Am"edcB AcBG|"Em"AcBG "Am"A4:|
|:"Am"ecAc e2 e2|"G"dBGB d2d2|"Am"cBAG A2 Ac|"Em"BAGA "G"BcdB|
"Am"ecAc e2 e2|"G"dBGB d2d2|"Am"cBAG AcBG|"Em"AcBG "Am"A4:|

